icons/Color/scalable/gimp-text-layer.svg

<svg height="16" viewBox="0 0 16 16" width="16" xmlns="http://www.w3.org/2000/svg" xmlns:xlink="http://www.w3.org/1999/xlink"><linearGradient id="a" gradientTransform="matrix(.3410129 0 0 .39513284 572.96639 416.15408)" gradientUnits="userSpaceOnUse" x1="83.031731" x2="66.311295" y1="40.924026" y2="22.765684"><stop offset="0" stop-color="#d0d0d0"/><stop offset="1" stop-color="#ececec"/></linearGradient><linearGradient id="b" gradientUnits="userSpaceOnUse" x1="6" x2="12" y1="3" y2="5"><stop offset="0"/><stop offset="1" stop-opacity="0"/></linearGradient><g fill-rule="evenodd"><path d="m7.030004 10.423256h11.827098v9.118933h-11.827098z" style="stroke:#9b9c98;stroke-width:1.003793;stroke-linecap:round;stroke-linejoin:round;stroke-miterlimit:10;fill:url(#a)" transform="matrix(1.0047718 0 -.33483948896 .98787664855 .011576 -3.801083)"/><path d="m8.176715 11.496682h9.632398v5.792974h-9.632398z" fill="#d3d7cf" stroke="#fff" stroke-miterlimit="10" stroke-width="1.06549" transform="matrix(1.0047718 0 -.33355909821 .98834755758 .011576 -3.801083)"/><path d="m10 0v2.7064896h-.2627705c-.1557248-.6243774-.328473-1.0717711-.5182426-1.3421828-.1897893-.2753105-.4501254-.4940911-.7810151-.6563422-.1849194-.088486-.3481992-.1327338-.8104732-.1327432h-.7372177v7.7138641c-.0000069.5113081.026753.8308755.08029.9587015.058383.127828.1678753.240905.3284641.339234.1654409.09341.3892829.140118.671525.140117h.3284632v.272862h-5.7355669v-.272862h.3284641c.2870983.000001.5182387-.05163.6934233-.154867.1265154-.06883.2262715-.186823.2992655-.353982.053526-.117993.08029-.4277281.08029-.9292035v-7.7138641h-.7701152c-.6666611.0000094-.8128093.1425854-1.1145063.4277286-.4233544.3982387-.6909918.9660846-.8029113 1.7035396h-.2773664v-2.7064896h9" fill="url(#b)"/></g></svg>

<?xml version="1.0" encoding="UTF-8" standalone="no"?>
<svg
   xmlns:dc="http://purl.org/dc/elements/1.1/"
   xmlns:cc="http://creativecommons.org/ns#"
   xmlns:rdf="http://www.w3.org/1999/02/22-rdf-syntax-ns#"
   xmlns:svg="http://www.w3.org/2000/svg"
   xmlns="http://www.w3.org/2000/svg"
   xmlns:xlink="http://www.w3.org/1999/xlink"
   xmlns:sodipodi="http://sodipodi.sourceforge.net/DTD/sodipodi-0.dtd"
   xmlns:inkscape="http://www.inkscape.org/namespaces/inkscape"
   version="1.1"
   width="16"
   height="16"
   id="svg2"
   viewBox="0 0 16 16"
   inkscape:version="0.91+devel r"
   sodipodi:docname="gimp-text-layer.svg">
  <sodipodi:namedview
     pagecolor="#ffffff"
     bordercolor="#666666"
     borderopacity="1"
     objecttolerance="10"
     gridtolerance="10"
     guidetolerance="10"
     inkscape:pageopacity="0"
     inkscape:pageshadow="2"
     inkscape:window-width="640"
     inkscape:window-height="480"
     id="namedview1697"
     showgrid="true"
     inkscape:zoom="8"
     inkscape:cx="-33.074016"
     inkscape:cy="6.795895"
     inkscape:window-x="0"
     inkscape:window-y="27"
     inkscape:window-maximized="0"
     inkscape:current-layer="svg2">
    <inkscape:grid
       type="xygrid"
       id="grid4244" />
  </sodipodi:namedview>
  <metadata
     id="metadata90">
    <rdf:RDF>
      <cc:Work>
        <dc:format>image/svg+xml</dc:format>
        <dc:type
           rdf:resource="http://purl.org/dc/dcmitype/StillImage" />
        <dc:title />
        <dc:contributor>
          <cc:Agent>
            <dc:title>many unknown and unnamed, Andrew Chadwick, Alexandre Prokoudine, Aryeom Han, Benoit Touchette, Jakub Steiner, Jehan, Johannes Matschke, Kevin Payne, Klaus Staedtler, Marek Dvoroznak, Michael Natterer</dc:title>
          </cc:Agent>
        </dc:contributor>
        <dc:description>Enhanced, extended tango-art-libre for GIMP</dc:description>
      </cc:Work>
    </rdf:RDF>
  </metadata>
  <defs
     id="defs7386">
    <linearGradient
       inkscape:collect="always"
       id="linearGradient4293">
      <stop
         style="stop-color:#000000;stop-opacity:1;"
         offset="0"
         id="stop4289" />
      <stop
         style="stop-color:#000000;stop-opacity:0;"
         offset="1"
         id="stop4291" />
    </linearGradient>
    <linearGradient
       id="linearGradient5148">
      <stop
         stop-color="#d0d0d0"
         id="stop5150" />
      <stop
         stop-color="#ececec"
         id="stop5152"
         offset="1" />
    </linearGradient>
    <linearGradient
       y2="22.765684"
       x2="66.311295"
       y1="40.924026"
       x1="83.031731"
       gradientTransform="matrix(0.3410129,0,0,0.39513284,572.96639,416.15408)"
       gradientUnits="userSpaceOnUse"
       id="linearGradient7321"
       xlink:href="#linearGradient5148" />
    <linearGradient
       id="linearGradient2853">
      <stop
         style="stop-color:#2e3436;stop-opacity:1;"
         offset="0"
         id="stop2855" />
      <stop
         style="stop-color:#8c999d;stop-opacity:1;"
         offset="1"
         id="stop2857" />
    </linearGradient>
    <linearGradient
       id="linearGradient5704">
      <stop
         style="stop-color:#5a5a5a;stop-opacity:1;"
         offset="0"
         id="stop5706" />
      <stop
         style="stop-color:#000000;stop-opacity:1.0000000;"
         offset="1.0000000"
         id="stop5708" />
    </linearGradient>
    <linearGradient
       inkscape:collect="always"
       xlink:href="#linearGradient4293"
       id="linearGradient4295"
       x1="6"
       y1="3"
       x2="12"
       y2="5"
       gradientUnits="userSpaceOnUse" />
  </defs>
  <g
     id="g4303">
    <g
       id="g19">
      <g
         id="g3998"
         transform="matrix(1.0047718,0,0,1.0477684,0.01157618,-3.8010831)">
        <rect
           transform="matrix(1,0,-0.33324929,0.94283875,0,0)"
           y="10.423256"
           x="7.030004"
           height="9.1189327"
           width="11.827098"
           id="rect4273-3"
           style="color:#000000;display:inline;overflow:visible;visibility:visible;opacity:1;fill:url(#linearGradient7321);fill-opacity:1;fill-rule:evenodd;stroke:#9b9c98;stroke-width:1.00379252;stroke-linecap:round;stroke-linejoin:round;stroke-miterlimit:10;stroke-dasharray:none;stroke-dashoffset:0;stroke-opacity:1;marker:none;marker-start:none;marker-mid:none;marker-end:none" />
        <rect
           ry="0"
           style="color:#000000;display:inline;overflow:visible;visibility:visible;opacity:1;fill:#d3d7cf;fill-opacity:1;fill-rule:evenodd;stroke:#ffffff;stroke-width:1.06549037;stroke-linecap:butt;stroke-linejoin:miter;stroke-miterlimit:10;stroke-dasharray:none;stroke-dashoffset:0;stroke-opacity:1;marker:none;marker-start:none;marker-mid:none;marker-end:none"
           id="rect5156-3"
           width="9.6323977"
           height="5.7929735"
           x="8.1767149"
           y="11.496682"
           transform="matrix(1,0,-0.33197498,0.94328819,0,0)" />
      </g>
    </g>
    <path
       sodipodi:nodetypes="cccsscccssccccccsscccscccc"
       id="text1950-9"
       d="M 10,0 V 2.7064896 H 9.7372295 C 9.5815047,2.0821122 9.4087565,1.6347185 9.2189869,1.3643068 9.0291976,1.0889963 8.7688615,0.8702157 8.4379718,0.7079646 8.2530524,0.6194786 8.0897726,0.5752308 7.6274986,0.5752214 H 6.8902809 v 7.7138641 c -6.9e-6,0.5113081 0.026753,0.8308755 0.08029,0.9587015 0.058383,0.127828 0.1678753,0.240905 0.3284641,0.339234 0.1654409,0.09341 0.3892829,0.140118 0.671525,0.140117 H 8.2990232 V 10 H 2.5634563 V 9.727138 h 0.3284641 c 0.2870983,10e-7 0.5182387,-0.05163 0.6934233,-0.154867 0.1265154,-0.06883 0.2262715,-0.186823 0.2992655,-0.353982 0.053526,-0.117993 0.08029,-0.4277281 0.08029,-0.9292035 V 0.5752214 H 3.194784 C 2.5281229,0.5752308 2.3819747,0.7178068 2.0802777,1.00295 1.6569233,1.4011887 1.3892859,1.9690346 1.2773664,2.7064896 H 1 V 0 h 9"
       style="color:#000000;font-style:normal;font-variant:normal;font-weight:bold;font-stretch:normal;font-size:36.17139816px;line-height:100%;font-family:'Times New Roman';text-indent:0;text-align:start;text-decoration:none;text-decoration-line:none;letter-spacing:normal;word-spacing:normal;text-transform:none;writing-mode:lr-tb;direction:ltr;text-anchor:start;display:inline;overflow:visible;visibility:visible;opacity:1;fill:url(#linearGradient4295);fill-opacity:1;fill-rule:evenodd;stroke:none;stroke-width:0.99039966;stroke-linecap:butt;stroke-linejoin:miter;stroke-miterlimit:4;stroke-dashoffset:0;stroke-opacity:1;marker:none;marker-start:none;marker-mid:none;marker-end:none"
       inkscape:connector-curvature="0" />
  </g>
</svg>
